X:1
T:Reprise - Cest une dure despartie
T:Reprise - Cest une dure despartie
T:(Basse dansse 3)
T:Tielman Susato
C:Tielman Susato
%%score 1 2 3 4
L:1/8
Q:1/2=210
M:3/2
K:C
V:1 treble 
V:2 treble 
V:3 treble 
V:4 treble 
V:1
 G4 G4 G4 | A4 c4 B2 A2 | A8 ^G4 | A8 z4 | E4 E2 D2 E2 F2 | G4 A6 G2 | G8 ^F4 | G8 z4 :: c4 c4 B4 | %9
 c4 B6 A2 | A8 ^G4 | A4 c2 B2 A2 G2 | F2 E2 F8 | E6 F2 G2 A2 | B2 c2 d4 B4 | c8 z4 | c4 c4 B4 | %17
 A4 G4 G2 F2 | E2 D2 E4 E4 | D2 C2 D2 E2 F2 D2 | G4 E4 F4 | G4 A6 G2 | G8 ^F4 | G8 z4 :| %24
V:2
 E4 E4 E4 | F4 E4 G4 | E4 E8 | C8 z4 | C4 C4 G,4 | G,4 E4 E4 | C4 D8 | B,8 z4 :: G,6 A,2 B,4 | %9
 G,6 A,2 B,4 | C4 E8 | C4 F4 E4 | D6 C2 A,2 B,2 | C4 E4 E4 | D4 G4 G4 | E8 z4 | E4 E4 D4 | %17
 F4 E4 D4 | G4 A8 | F6 E2 D4 | E4 G4 F4 | E4 A,6 B,2 | C4 D8 | B,8 z4 :| %24
V:3
 C4 C4 C4 | C4 C4 D4 | C4 B,8 | A,8 z4 | G,4 G,4 C4 | B,4 C6 B,2 | G,4 A,8 | G,8 z4 :: E4 E4 D4 | %9
 E8 D4 | C4 B,8 | A,6 B,2 C2 B,2 | A,2 G,2 A,4 F,4 | G,8 C4 | B,6 C2 D4 | C8 z4 | G,6 A,2 B,2 C2 | %17
 C6 B,A, B,2 C2 | D8 ^C4 | D4 A,2 G,2 A,2 B,2 | C8 A,4 | G,4 C6 B,2 | G,4 A,8 | G,8 z4 :| %24
V:4
 C,4 C,4 C,4 | F,4 A,4 G,4 | A,4 E,8 | A,,8 z4 | C,4 C,2 B,,2 C,2 D,2 | E,4 A,,4 C,4 | E,4 D,8 | %7
 G,,8 z4 :: C,4 C,4 G,4 | C,2 D,2 E,2 F,2 G,4 | A,4 E,8 | F,6 G,2 A,4 | D,4 D,4 D,4 | %13
 C,6 D,2 E,2 F,2 | G,4 G,4 G,4 | C,8 z4 | C,4 C,4 G,4 | F,4 C,4 G,4 | B,4 A,8 | D,8 D,4 | %20
 C,4 C,4 D,4 | E,4 F,6 G,2 | E,4 D,8 | G,,8 z4 :| %24

